<?xml version="1.0" encoding="UTF-8"?>
<map version="1.10" tiledversion="1.12.2" orientation="orthogonal" renderorder="right-down" width="60" height="40" tilewidth="16" tileheight="16" infinite="0" nextlayerid="5" nextobjectid="3">
 <tileset firstgid="1" source="arena_01.tsx"/>
 <layer id="1" name="Tile Layer 1" width="60" height="40">
  <data encoding="csv">
80,80,80,80,80,80,80,80,80,80,80,80,80,80,80,80,80,80,80,80,80,80,80,80,80,80,80,80,80,80,80,80,80,80,80,80,80,80,80,80,80,80,80,80,80,80,80,80,80,80,80,80,80,80,80,80,80,80,80,80,
80,80,5,5,5,5,5,5,5,5,5,5,5,5,5,5,5,5,5,5,5,5,5,5,5,5,5,5,5,5,5,5,5,5,5,5,5,5,5,5,5,5,5,5,5,5,5,5,5,5,5,80,80,80,80,80,80,80,80,80,
80,5,5,5,5,5,5,5,5,5,5,5,5,5,5,5,5,5,5,5,5,5,5,5,5,5,5,5,76,76,76,76,76,76,76,76,5,5,5,5,5,5,5,5,5,5,5,5,5,5,5,5,5,80,80,80,80,80,80,80,
80,5,5,5,5,5,5,5,5,5,5,5,5,5,5,5,5,5,5,5,5,5,5,5,5,5,5,5,5,5,5,5,5,5,5,5,5,5,5,5,5,5,5,5,5,5,5,5,5,5,5,5,5,5,5,80,80,80,80,80,
80,5,5,5,5,5,5,5,5,5,5,5,5,5,5,5,5,5,5,5,5,5,5,5,5,5,5,5,5,5,5,5,5,5,5,5,5,5,5,5,5,5,5,5,5,5,5,5,5,5,5,5,5,5,5,5,5,80,80,80,
80,5,5,5,5,5,5,5,1,1,1,1,1,1,1,1,5,5,5,5,5,5,5,5,5,5,5,5,5,5,9,9,9,9,9,5,5,5,5,5,5,5,5,5,5,5,5,5,5,5,5,5,5,5,5,5,5,80,80,80,
80,5,5,5,1,1,1,1,1,1,1,1,1,1,1,1,1,5,5,5,5,5,5,5,5,5,9,9,9,9,9,5,5,5,9,9,9,9,9,9,5,5,5,5,5,5,5,5,5,5,5,5,5,5,5,5,5,5,80,80,
80,5,5,1,1,1,1,1,1,1,1,1,1,1,1,1,1,1,5,5,5,5,5,5,5,5,9,5,5,5,5,5,5,5,5,5,5,5,5,9,5,5,5,5,5,5,5,5,5,5,5,5,5,5,5,5,5,5,5,80,
80,5,5,1,1,1,1,1,1,1,1,1,1,1,1,1,1,1,1,5,5,5,5,5,5,5,9,5,5,5,5,5,5,5,5,5,5,5,9,9,5,5,5,5,5,5,5,5,5,5,5,5,5,5,5,5,5,5,5,80,
80,5,5,5,1,1,1,1,1,1,1,1,1,1,1,1,1,1,1,1,5,5,5,5,5,5,9,5,5,5,5,5,5,5,5,5,5,5,32,9,5,5,5,5,5,5,5,5,5,5,5,5,5,5,5,5,5,5,5,80,
80,5,5,5,5,1,1,1,1,1,1,1,1,1,1,1,1,1,1,1,5,5,5,5,5,5,9,9,9,9,9,5,5,5,5,5,5,5,32,5,5,5,5,5,5,5,5,5,5,5,5,5,5,5,5,5,5,5,5,80,
80,5,5,5,5,5,1,1,1,1,1,1,1,1,1,1,1,1,1,1,5,5,5,5,5,5,5,5,5,5,5,5,32,32,32,32,32,32,32,5,5,5,5,5,5,5,5,5,5,5,5,5,5,5,5,5,5,5,5,80,
80,5,5,5,5,5,5,1,1,1,1,1,1,1,1,1,1,1,1,1,5,5,5,5,5,5,5,5,5,5,5,32,32,32,32,32,32,32,32,32,5,5,5,5,5,5,5,5,5,5,5,5,5,5,5,5,5,5,5,80,
80,5,5,5,5,5,5,5,1,1,1,1,1,1,1,1,1,1,1,1,5,5,5,5,5,5,5,5,5,5,5,32,32,32,32,32,32,32,32,32,5,5,5,5,5,5,5,5,5,5,5,5,5,5,5,5,5,5,5,80,
80,5,5,5,5,5,5,5,1,1,1,1,1,1,1,1,1,1,1,1,5,5,5,5,5,5,5,5,5,5,32,32,32,32,32,32,32,32,32,32,5,5,5,5,5,5,5,5,5,5,5,5,5,5,5,5,5,5,5,80,
80,5,5,5,5,5,5,5,1,1,1,1,1,1,1,1,1,1,1,1,5,5,5,5,5,5,5,5,5,5,5,5,5,5,32,32,32,32,32,5,5,5,5,5,5,5,5,5,5,5,5,5,5,5,5,5,5,5,5,80,
80,5,5,5,5,5,5,5,5,5,1,1,1,1,1,1,1,1,1,5,5,5,5,5,5,5,5,5,5,5,5,5,5,5,5,5,5,5,5,5,5,5,5,5,5,5,5,5,5,17,17,17,17,5,5,5,5,5,5,80,
80,5,5,5,5,5,5,5,5,5,5,1,1,1,1,1,1,5,5,5,5,5,5,5,5,5,5,5,5,5,5,5,5,5,5,5,5,5,5,5,5,5,5,5,5,5,5,17,17,17,17,17,17,17,17,5,5,5,5,80,
80,5,5,5,5,5,5,5,5,5,5,5,1,1,1,1,5,5,5,5,5,5,5,13,13,13,13,13,5,5,5,5,5,5,5,5,5,5,5,5,5,5,5,5,5,5,5,17,17,17,17,17,17,17,17,5,5,5,5,80,
80,5,5,5,5,5,5,5,5,5,5,5,5,5,5,5,5,5,5,5,5,5,5,5,13,13,13,13,13,13,5,5,5,5,5,5,5,5,5,5,5,5,5,5,5,5,5,17,17,17,17,17,17,17,17,5,5,5,5,80,
80,5,5,5,5,5,5,5,5,5,5,5,5,5,5,5,5,5,5,5,5,5,5,5,5,13,13,13,13,13,13,5,5,21,21,5,5,5,5,5,5,5,5,5,5,5,5,17,17,17,17,17,17,17,17,5,5,5,5,80,
80,5,5,5,5,5,5,5,5,5,5,5,5,5,5,5,5,5,5,5,5,5,5,5,5,5,13,13,13,13,13,13,13,21,21,13,13,5,5,5,5,5,5,5,5,5,5,17,17,17,17,17,17,17,17,5,5,5,5,80,
80,5,5,5,5,5,5,5,5,5,5,5,5,5,5,5,5,5,5,5,5,5,5,5,5,5,13,13,13,13,13,13,13,21,21,13,13,13,13,13,5,5,5,5,5,5,5,17,17,17,17,17,17,17,17,17,5,5,5,80,
80,5,5,5,5,5,5,5,5,5,5,5,76,5,5,5,5,5,5,5,5,5,5,5,5,5,5,5,13,13,13,13,13,21,21,13,13,13,13,13,13,5,5,5,5,5,5,17,17,17,17,17,17,17,17,17,5,5,5,80,
80,5,5,5,5,5,5,5,5,5,5,5,76,5,5,5,5,5,5,5,5,5,5,5,5,5,5,5,5,5,13,13,13,21,21,13,13,13,13,5,5,5,5,5,5,5,5,17,17,17,17,17,17,17,17,5,5,5,5,80,
80,5,5,5,5,5,5,5,5,5,5,5,76,5,5,5,5,5,5,5,5,5,5,5,5,5,5,5,5,5,5,5,5,21,21,5,5,5,5,5,5,5,5,5,5,5,5,17,17,17,17,17,17,17,17,5,5,5,5,80,
80,5,5,5,5,5,5,5,5,5,5,5,76,5,5,5,5,5,5,5,5,5,5,5,5,5,5,5,5,5,5,5,5,5,5,5,5,5,5,5,5,5,5,5,5,5,5,5,17,17,17,17,17,17,5,5,5,5,5,80,
80,5,5,5,5,5,5,5,5,5,5,5,76,5,5,5,5,5,5,5,5,5,5,5,5,5,5,5,5,5,5,5,5,5,5,5,5,5,5,5,5,5,5,5,5,5,5,5,17,17,17,17,17,17,5,5,5,5,5,80,
80,5,5,5,5,5,5,5,5,5,5,5,76,5,5,5,5,5,5,5,5,5,5,5,5,5,5,5,5,5,5,5,5,5,5,5,5,5,5,5,5,5,5,5,5,5,5,5,5,17,17,17,5,5,5,5,5,5,5,80,
80,5,5,5,5,5,5,5,5,5,5,5,76,5,5,5,5,5,5,5,5,5,5,5,5,5,5,5,5,5,5,5,5,5,5,5,5,5,5,5,5,5,5,5,5,5,5,5,5,5,5,5,5,5,5,5,5,5,5,80,
80,5,5,5,5,5,5,5,5,5,5,5,76,5,5,5,5,5,5,5,5,5,5,5,5,5,5,5,5,5,5,5,5,5,5,5,5,21,21,5,5,5,5,5,5,5,5,5,5,5,5,5,5,5,5,5,5,5,5,80,
80,5,5,5,5,5,5,5,5,5,5,5,76,5,5,5,5,5,5,5,5,1,1,1,1,1,1,1,1,1,1,1,1,1,1,1,1,21,21,1,1,1,1,5,5,5,5,5,5,5,5,5,5,5,5,5,5,5,5,80,
80,5,5,5,5,5,5,5,5,5,5,5,5,5,5,5,5,5,5,5,5,1,1,1,1,1,1,1,1,1,1,1,1,1,1,1,1,21,21,1,1,1,1,5,5,5,5,5,5,5,5,5,5,5,5,5,5,5,5,80,
80,5,5,5,5,5,5,5,5,5,5,5,5,5,5,5,5,5,5,5,5,1,1,1,1,1,1,1,1,1,1,1,1,1,1,1,1,21,21,1,1,1,1,5,5,5,5,5,5,5,5,5,5,5,5,5,5,5,5,80,
80,5,5,5,5,5,5,5,5,5,5,5,5,5,5,5,5,5,5,5,5,5,5,5,5,5,5,5,5,5,5,5,5,5,5,5,5,21,21,5,5,5,5,5,5,5,5,5,5,5,5,5,5,5,5,5,5,5,5,80,
80,5,5,5,5,5,5,5,5,5,5,5,5,5,5,5,5,5,5,5,5,5,5,5,5,5,5,5,5,5,5,5,5,5,5,5,5,5,5,5,5,5,5,5,5,5,5,5,5,5,5,5,5,5,5,5,5,5,5,80,
80,5,5,5,5,5,5,5,5,5,5,5,5,76,76,76,76,76,76,76,76,76,76,5,5,5,5,5,5,76,76,76,76,76,5,5,5,5,5,5,5,5,5,5,5,5,5,5,5,5,5,5,5,5,5,5,5,5,5,80,
80,5,5,5,5,5,5,5,5,5,5,5,5,5,5,5,5,5,5,5,5,5,5,5,5,5,5,5,5,5,5,5,5,5,5,5,5,5,5,5,5,5,5,5,5,5,5,5,5,5,5,5,5,5,5,5,5,5,5,80,
80,80,5,5,5,5,5,5,5,5,5,5,5,5,5,5,5,5,5,5,5,5,5,5,5,5,5,5,5,5,5,5,5,5,5,5,5,5,5,5,5,5,5,5,5,5,5,80,80,80,80,5,5,5,5,5,5,5,80,80,
80,80,80,80,80,80,80,80,80,80,80,80,80,80,80,80,80,80,80,80,80,80,80,80,80,80,80,80,80,80,80,80,80,80,80,80,80,80,80,80,80,80,80,80,80,80,80,80,80,80,80,80,80,80,80,80,80,80,80,80
</data>
 </layer>
 <objectgroup id="4" name="Pickups">
  <object id="1" name="fuel1" type="Fuel" x="408" y="210">
   <point/>
  </object>
  <object id="2" name="ammo1" type="Ammunition" x="327" y="370">
   <point/>
  </object>
 </objectgroup>
</map>
